!!! OTL: Berkowitz188
!!! Chapter: 1
!!! Section: II
!!! Page: 45
!!! Mode: 
!!! Encoder: DJB
**kern
*staff1
*I"Piano
=1-
*clefG2
*k[b-e-a-d-]
*A-:
*M4/4
2cc\
8r
8b-\L
8cc\
8dd-\J
=2
8ee-\L
8ff\
8ee-\
8dd-\J
4.cc\
8a-/
=3
4dd-\
8dd-\L
16ee-\L
16ff\JJ
4.ee-\
8b-\
=4
1cc
=5
2g/
8r
8b-\L
8dd-\
8b-\J
=6
2.cc\
4a-/
=7
2g/
8r
8b-\L
8dd-\
8b-\J
=8
4.ee-\
16ff\LL
16gg\JJ
4aa-\
4cc\
=9
!!linebreak:original
8b-\L
8dd-\
8ff\
8dd-\J
2cc\
=10
4.b-\
16a-/LL
16b-/JJ
2a-/
==
*-
